packages/ui-solid/icons/smile_28.svg

<svg width="28" height="28" viewBox="0 0 28 28" fill="none" xmlns="http://www.w3.org/2000/svg">
<path d="M12.4688 11.3236C12.4688 12.1392 11.9105 12.8004 11.2218 12.8004C10.533 12.8004 9.9747 12.1392 9.9747 11.3236C9.9747 10.508 10.533 9.84684 11.2218 9.84684C11.9105 9.84684 12.4688 10.508 12.4688 11.3236Z" fill="#007AFF"/>
<path d="M18.4548 11.3236C18.4548 12.1392 17.8964 12.8004 17.2077 12.8004C16.519 12.8004 15.9606 12.1392 15.9606 11.3236C15.9606 10.508 16.519 9.84684 17.2077 9.84684C17.8964 9.84684 18.4548 10.508 18.4548 11.3236Z" fill="#007AFF"/>
<path fill-rule="evenodd" clip-rule="evenodd" d="M13.9682 4.9287C8.99232 4.9287 4.98099 8.90594 4.98099 13.7846C4.98099 18.6632 8.99232 22.6405 13.9682 22.6405C18.9442 22.6405 22.9555 18.6632 22.9555 13.7846C22.9555 8.90594 18.9442 4.9287 13.9682 4.9287ZM3.00241 13.7846C3.00241 7.78856 7.92439 2.95013 13.9682 2.95013C20.0121 2.95013 24.9341 7.78856 24.9341 13.7846C24.9341 19.7806 20.0121 24.6191 13.9682 24.6191C7.92439 24.6191 3.00241 19.7806 3.00241 13.7846ZM17.7907 15.3134C18.3057 15.4961 18.575 16.0616 18.3924 16.5765L17.5087 16.2631C18.3924 16.5765 18.3922 16.5771 18.392 16.5777L18.3916 16.5789L18.3906 16.5815L18.3886 16.5872L18.3835 16.6009C18.3797 16.611 18.375 16.623 18.3694 16.6369C18.3583 16.6646 18.3435 16.6996 18.3247 16.7409C18.2871 16.8233 18.233 16.9316 18.1589 17.0569C18.0112 17.3068 17.7807 17.6302 17.4392 17.9512C16.7379 18.6103 15.6248 19.2042 13.9682 19.2042C12.3117 19.2042 11.1986 18.6104 10.4973 17.9513C10.1558 17.6303 9.92533 17.3069 9.7776 17.057C9.70352 16.9317 9.64939 16.8234 9.6118 16.741C9.59298 16.6997 9.5782 16.6646 9.56707 16.637C9.5615 16.6231 9.55684 16.6111 9.55302 16.601L9.54793 16.5873L9.54585 16.5815L9.54493 16.579L9.54449 16.5777C9.54428 16.5772 9.54408 16.5766 10.431 16.262L9.54407 16.5766C9.36144 16.0616 9.63083 15.4961 10.1458 15.3135C10.6559 15.1326 11.2156 15.3952 11.4036 15.9007C11.4048 15.9037 11.4076 15.9103 11.412 15.92C11.4235 15.9453 11.4458 15.9908 11.4808 16.0501C11.5513 16.1694 11.6701 16.3382 11.8523 16.5095C12.1986 16.835 12.8313 17.2256 13.9682 17.2256C15.1051 17.2256 15.7379 16.8349 16.0842 16.5095C16.2664 16.3382 16.3851 16.1694 16.4556 16.0501C16.4907 15.9908 16.5129 15.9452 16.5244 15.92C16.5289 15.9102 16.5317 15.9037 16.5329 15.9007C16.7209 15.3952 17.2806 15.1325 17.7907 15.3134ZM11.4082 15.9133C11.4081 15.9132 11.4082 15.9134 11.4082 15.9133V15.9133Z" fill="#007AFF"/>
</svg>

<svg xmlns="http://www.w3.org/2000/svg" width="28" height="28" fill="none"><path fill="currentColor" d="M12.469 11.324c0 .815-.558 1.476-1.247 1.476s-1.247-.66-1.247-1.476.558-1.477 1.247-1.477 1.247.661 1.247 1.477m5.986 0c0 .815-.559 1.476-1.247 1.476s-1.247-.66-1.247-1.476.558-1.477 1.247-1.477c.688 0 1.247.661 1.247 1.477"/><path fill="currentColor" fill-rule="evenodd" d="M13.968 4.929c-4.976 0-8.987 3.977-8.987 8.856s4.011 8.856 8.987 8.856 8.988-3.978 8.988-8.856c0-4.88-4.012-8.856-8.988-8.856M3.002 13.785c0-5.996 4.922-10.835 10.966-10.835s10.966 4.84 10.966 10.835-4.922 10.834-10.966 10.834S3.002 19.781 3.002 13.785m14.789 1.528a.99.99 0 0 1 .601 1.263l-.883-.313c.883.313.883.314.883.315l-.001.003-.002.006-.005.014a2 2 0 0 1-.06.14c-.037.082-.091.19-.165.316-.148.25-.378.573-.72.894-.701.66-1.814 1.253-3.47 1.253s-2.77-.594-3.472-1.253a4 4 0 0 1-.72-.894 3.4 3.4 0 0 1-.224-.456l-.005-.014-.002-.006-.001-.002v-.001l.886-.316-.887.315a.99.99 0 1 1 1.868-.657q.017.039.069.13c.07.12.19.288.371.46.347.325.98.716 2.116.716s1.77-.391 2.116-.716c.182-.172.301-.34.372-.46a1.4 1.4 0 0 0 .077-.15.99.99 0 0 1 1.258-.587m-6.383.6" clip-rule="evenodd"/></svg>
